icons/makefile.svg

<svg width="16" height="16" viewBox="0 0 16 16" fill="none" xmlns="http://www.w3.org/2000/svg">
<path fill-rule="evenodd" clip-rule="evenodd" d="M2 3C2 2.44772 2.44772 2 3 2H13C13.5523 2 14 2.44772 14 3V9H12V4H10L8 6.5L6 4H4V12H6V7L8 9.5L10 7V9.27487C9.4662 9.59196 9 10.2275 9 11.4V14H3C2.44772 14 2 13.5523 2 13V3ZM11.5198 9.91093C11.6367 9.89008 11.7553 9.87941 11.8741 9.87904C11.9929 9.87941 12.1114 9.89008 12.2284 9.91093L12.4623 10.5877L13.0929 10.2688C13.1941 10.3368 13.288 10.4152 13.3729 10.5026C13.4603 10.5876 13.5387 10.6814 13.6067 10.7826L13.2914 11.4168L13.9681 11.6294C14.0106 11.8708 14.0106 12.1178 13.9681 12.3593L13.2914 12.5931L13.6103 13.2238C13.4704 13.4239 13.2965 13.5978 13.0965 13.7376L12.4623 13.4223L12.2497 14.099C12.0082 14.1415 11.7612 14.1415 11.5198 14.099L11.2859 13.4223L10.6517 13.7411C10.4516 13.6013 10.2777 13.4274 10.1379 13.2274L10.4568 12.5931L9.78004 12.3593C9.73999 12.1248 9.73999 11.8852 9.78004 11.6507L10.4568 11.4168L10.1379 10.7826C10.2059 10.6814 10.2843 10.5876 10.3718 10.5026C10.4567 10.4152 10.5505 10.3368 10.6517 10.2688L11.2859 10.5877L11.5198 9.91093Z" fill="#909090" fill-opacity="0.9"/>
</svg>

<svg xmlns="http://www.w3.org/2000/svg" width="16" height="16" fill="none" viewBox="0 0 16 16"><path fill="#909090" fill-opacity=".9" fill-rule="evenodd" d="M2 3a1 1 0 0 1 1-1h10a1 1 0 0 1 1 1v6h-2V4h-2L8 6.5 6 4H4v8h2V7l2 2.5L10 7v2.275c-.534.317-1 .952-1 2.125V14H3a1 1 0 0 1-1-1zm9.52 6.91a2 2 0 0 1 .708 0l.234.678.63-.32q.153.103.28.235.132.127.235.28l-.316.634.677.212c.043.242.043.489 0 .73l-.677.234.32.63c-.14.2-.315.375-.514.515l-.635-.316-.212.677a2.1 2.1 0 0 1-.73 0l-.234-.677-.634.32c-.2-.14-.374-.315-.514-.515l.319-.634-.677-.234a2.1 2.1 0 0 1 0-.708l.677-.234-.32-.634q.103-.153.235-.28.127-.132.28-.234l.634.319z" clip-rule="evenodd"/></svg>
